dist/assets/img/pay/webmoney.svg

<svg width="163" height="163" viewBox="0 0 163 163" fill="none" xmlns="http://www.w3.org/2000/svg">
<g clip-path="url(#clip0)">
<path d="M153.804 81.2783L149.979 84.7349L153.433 88.5582L157.258 85.1016L153.804 81.2783Z" fill="black"/>
<path d="M146.179 84.3883L141.077 88.9807L145.672 94.0849L150.774 89.4925L146.179 84.3883Z" fill="black"/>
<path d="M160.706 80.0617L158.157 82.3585L160.454 84.9068L163.002 82.61L160.706 80.0617Z" fill="black"/>
<path d="M147.004 65.5097L143.175 68.9568L146.622 72.7862L150.451 69.3391L147.004 65.5097Z" fill="black"/>
<path d="M157.441 72.4468L154.897 74.7445L157.197 77.2901L159.741 74.9923L157.441 72.4468Z" fill="black"/>
<path d="M17.0979 72.6621L14.5984 85.6169H14.4252L11.0207 72.6621H8.84136L5.659 85.6169H5.48583L2.74455 72.6621H0L3.96652 90.0244H6.61305L9.84443 77.8015H10.0176L13.347 90.0244H15.9935L19.9633 72.6621H17.0979Z" fill="black"/>
<path d="M142.559 75.546L137.452 80.1429L142.047 85.2473L147.153 80.6504L142.559 75.546Z" fill="black"/>
<path d="M138.912 66.848L133.808 71.4425L138.402 76.5466L143.506 71.9521L138.912 66.848Z" fill="black"/>
<path d="M150.519 73.211L146.699 76.6588L150.154 80.486L153.974 77.0382L150.519 73.211Z" fill="black"/>
<path d="M154.166 64.8777L151.618 67.1744L153.915 69.7226L156.463 67.4259L154.166 64.8777Z" fill="black"/>
<path d="M112.248 77.8995L109.468 86.9206H109.321L106.187 77.9028H103.495L108.194 90.152C107.605 91.9653 106.579 93.2853 104.913 93.2853V95.2882C107.726 95.2882 109.219 93.5271 110.445 90.1455L114.872 77.8995H112.248Z" fill="black"/>
<path d="M31.176 83.4703C31.1792 79.4678 29.294 77.4911 26.2325 77.4911C22.56 77.4911 20.6748 80.1801 20.6748 83.9048C20.6748 87.7766 22.3673 90.3219 26.4776 90.3219C28.2386 90.3219 29.7089 89.8318 30.81 89.1881V87.3355C29.4639 88.136 28.2386 88.6065 26.9187 88.6065C24.3995 88.6065 23.1972 87.3127 23.1972 84.3688H31.176V83.4703ZM23.2462 82.7253C23.5141 80.2814 24.6675 79.128 26.1606 79.128C27.4839 79.128 28.732 80.1507 28.8529 82.7253H23.2462Z" fill="black"/>
<path d="M157.176 89.0154L153.348 92.4644L156.799 96.2944L160.627 92.8455L157.176 89.0154Z" fill="black"/>
<path d="M102.723 83.4703C102.729 79.4678 100.841 77.4911 97.7823 77.4911C94.1066 77.4911 92.2246 80.1801 92.2246 83.9048C92.2246 87.7766 93.9138 90.3219 98.0241 90.3219C99.7852 90.3219 101.249 89.8318 102.353 89.1881V87.3355C101.01 88.136 99.7852 88.6065 98.4652 88.6065C95.9461 88.6065 94.7404 87.3127 94.7404 84.3688H102.723V83.4703ZM94.7895 82.7253C95.0639 80.2814 96.2173 79.128 97.7104 79.128C99.0272 79.128 100.282 80.1507 100.403 82.7253H94.7895Z" fill="black"/>
<path d="M150.459 93.3536L145.47 97.954L137.047 88.5801L139.389 86.5184L133.492 79.9152L135.847 77.8502L129.862 71.2535L139.203 62.8434L142.17 66.0911L147.179 61.6214L150.139 64.6895L152.112 62.9218C151.671 62.667 151.23 62.4317 150.782 62.2194C147.937 60.8275 144.741 60.0433 141.376 60.0433C129.558 60.0433 119.916 69.6819 119.916 81.5031C119.916 93.321 129.558 102.96 141.376 102.96C145.215 102.96 148.832 101.943 151.952 100.163C152.981 99.5812 153.919 98.9506 154.775 98.2873L150.459 93.3536Z" fill="black"/>
<path d="M39.2613 77.4912C37.938 77.4912 36.6899 78.0042 35.9515 78.3963V71.4174L33.4062 72.0283V89.1195C34.8765 89.9004 36.8827 90.3186 38.1831 90.3186C41.7346 90.3186 43.9368 88.0871 43.9368 83.5063C43.9368 79.5954 42.2966 77.4912 39.2613 77.4912ZM38.1831 88.6033C37.5688 88.6033 36.716 88.5575 35.9319 88.2145V80.2064C36.9121 79.6673 37.6244 79.3993 38.598 79.3993C40.2382 79.3993 41.3687 80.4057 41.3687 83.5096C41.3687 87.4761 39.9964 88.6033 38.1831 88.6033Z" fill="black"/>
<path d="M85.9099 77.4844C83.0934 77.4844 80.7671 78.6345 79.666 79.2945V90.0178H82.208V80.3237C82.966 79.8826 84.2174 79.4415 85.1943 79.4415C86.4522 79.4415 87.403 79.7846 87.403 81.7188V90.0211H89.9483V81.1601C89.9483 78.641 88.8439 77.4909 85.9099 77.4844Z" fill="black"/>
<path d="M60.4411 72.6621L55.2069 86.3488H55.0827L49.5969 72.6621H46.6367V90.0244H48.8389V77.7297H49.0578L54.0535 90.0244H55.6186L60.6143 77.4323H60.8332V90.0244H63.4765V72.6621H60.4411Z" fill="black"/>
<path d="M71.7538 77.4911C68.5224 77.4911 66.1699 79.6214 66.1699 83.9048C66.1699 88.0903 68.4015 90.3219 71.7538 90.3219C75.1093 90.3219 77.3376 88.0903 77.3376 83.9048C77.3376 79.6181 74.9851 77.4911 71.7538 77.4911ZM71.7538 88.6032C70.0156 88.6032 68.7413 87.2636 68.7413 83.9048C68.7413 80.5983 70.1397 79.2032 71.7538 79.2032C73.4201 79.2032 74.7662 80.5983 74.7662 83.9048C74.7662 87.2604 73.492 88.6032 71.7538 88.6032Z" fill="black"/>
</g>
<defs>
<clipPath id="clip0">
<rect width="163" height="163" fill="white"/>
</clipPath>
</defs>
</svg>

<svg width="163" height="163" fill="none" xmlns="http://www.w3.org/2000/svg"><g clip-path="url(#clip0)" fill="#000"><path d="M153.804 81.278l-3.825 3.457 3.454 3.823 3.825-3.456-3.454-3.824zm-7.625 3.11l-5.102 4.593 4.595 5.104 5.102-4.592-4.595-5.105zm14.527-4.326l-2.549 2.297 2.297 2.548 2.548-2.297-2.296-2.548zM147.004 65.51l-3.829 3.447 3.447 3.83 3.829-3.448-3.447-3.83zm10.437 6.937l-2.544 2.297 2.3 2.546 2.544-2.298-2.3-2.545zm-140.343.215l-2.5 12.955h-.173l-3.404-12.955H8.84L5.66 85.617h-.173L2.745 72.662H0l3.967 17.362h2.646l3.231-12.222h.174l3.329 12.222h2.646l3.97-17.362h-2.865zm125.461 2.884l-5.107 4.597 4.595 5.104 5.106-4.597-4.594-5.104zm-3.647-8.698l-5.104 4.594 4.594 5.105 5.104-4.595-4.594-5.104zm11.607 6.363l-3.82 3.448 3.455 3.827 3.82-3.448-3.455-3.827zm3.647-8.333l-2.548 2.296 2.297 2.549 2.548-2.297-2.297-2.548zM112.248 77.9l-2.78 9.02h-.147l-3.134-9.017h-2.692l4.699 12.249c-.589 1.813-1.615 3.133-3.281 3.133v2.003c2.813 0 4.306-1.76 5.532-5.142l4.427-12.246h-2.624zm-81.072 5.57c.003-4.002-1.882-5.979-4.943-5.979-3.673 0-5.558 2.69-5.558 6.414 0 3.872 1.692 6.417 5.803 6.417 1.76 0 3.23-.49 4.332-1.134v-1.853c-1.346.801-2.571 1.272-3.891 1.272-2.52 0-3.722-1.294-3.722-4.238h7.979v-.899zm-7.93-.745c.268-2.444 1.422-3.597 2.915-3.597 1.323 0 2.571 1.023 2.692 3.597h-5.607zm133.93 6.29l-3.828 3.45 3.451 3.83 3.828-3.45-3.451-3.83zm-54.453-5.545c.006-4.002-1.882-5.979-4.94-5.979-3.676 0-5.558 2.69-5.558 6.414 0 3.872 1.689 6.417 5.8 6.417 1.76 0 3.224-.49 4.328-1.134v-1.853c-1.343.801-2.568 1.272-3.888 1.272-2.519 0-3.725-1.294-3.725-4.238h7.983v-.899zm-7.933-.745c.274-2.444 1.427-3.597 2.92-3.597 1.317 0 2.572 1.023 2.693 3.597h-5.614z"/><path d="M150.459 93.354l-4.989 4.6-8.423-9.374 2.342-2.062-5.897-6.603 2.355-2.065-5.985-6.596 9.341-8.41 2.967 3.247 5.009-4.47 2.96 3.068 1.973-1.767c-.441-.255-.882-.49-1.33-.703a21.36 21.36 0 00-9.406-2.176c-11.818 0-21.46 9.639-21.46 21.46 0 11.818 9.642 21.457 21.46 21.457 3.839 0 7.456-1.017 10.576-2.797a23.422 23.422 0 002.823-1.876l-4.316-4.933zM39.261 77.491c-1.323 0-2.571.513-3.31.905v-6.979l-2.545.611V89.12c1.47.781 3.477 1.2 4.777 1.2 3.552 0 5.754-2.232 5.754-6.813 0-3.91-1.64-6.015-4.676-6.015zm-1.078 11.112c-.614 0-1.467-.045-2.251-.388v-8.009c.98-.539 1.692-.807 2.666-.807 1.64 0 2.77 1.007 2.77 4.11 0 3.967-1.372 5.094-3.185 5.094zM85.91 77.484c-2.817 0-5.143 1.15-6.244 1.81v10.724h2.542v-9.694c.758-.441 2.01-.882 2.986-.882 1.258 0 2.209.343 2.209 2.277v8.302h2.545v-8.86c0-2.52-1.104-3.67-4.038-3.677zm-25.469-4.822L55.207 86.35h-.124l-5.486-13.687h-2.96v17.362h2.202V77.73h.219l4.995 12.294h1.566l4.995-12.592h.22v12.592h2.642V72.662h-3.035zm11.313 4.829c-3.232 0-5.584 2.13-5.584 6.414 0 4.185 2.231 6.417 5.584 6.417 3.355 0 5.584-2.232 5.584-6.417 0-4.287-2.353-6.414-5.584-6.414zm0 11.112c-1.738 0-3.013-1.34-3.013-4.698 0-3.307 1.399-4.702 3.013-4.702 1.666 0 3.012 1.395 3.012 4.702 0 3.355-1.274 4.698-3.012 4.698z"/></g><defs><clipPath id="clip0"><path fill="#fff" d="M0 0h163v163H0z"/></clipPath></defs></svg>
